glyphs/medium/dollar.svg

<?xml version="1.0" encoding="UTF-8" standalone="no"?>
<!-- Created with Inkscape (http://www.inkscape.org/) -->

<svg
   xmlns:dc="http://purl.org/dc/elements/1.1/"
   xmlns:cc="http://creativecommons.org/ns#"
   xmlns:rdf="http://www.w3.org/1999/02/22-rdf-syntax-ns#"
   xmlns:svg="http://www.w3.org/2000/svg"
   xmlns="http://www.w3.org/2000/svg"
   xmlns:sodipodi="http://sodipodi.sourceforge.net/DTD/sodipodi-0.dtd"
   xmlns:inkscape="http://www.inkscape.org/namespaces/inkscape"
   width="1000"
   height="1000"
   id="svg3373"
   version="1.1"
   inkscape:version="0.48.2 r9819"
   sodipodi:docname="dollar.svg">
  <defs
     id="defs3375" />
  <sodipodi:namedview
     id="base"
     pagecolor="#ffffff"
     bordercolor="#666666"
     borderopacity="1.0"
     inkscape:pageopacity="0.0"
     inkscape:pageshadow="2"
     inkscape:zoom="0.5"
     inkscape:cx="521.08454"
     inkscape:cy="435.50458"
     inkscape:document-units="px"
     inkscape:current-layer="layer1"
     showgrid="false"
     showguides="true"
     inkscape:guide-bbox="true"
     inkscape:window-width="1280"
     inkscape:window-height="752"
     inkscape:window-x="0"
     inkscape:window-y="0"
     inkscape:window-maximized="1">
    <sodipodi:guide
       orientation="0,1"
       position="453.98442,199.97922"
       id="guide3381" />
    <inkscape:grid
       type="xygrid"
       id="grid3420"
       empspacing="5"
       visible="true"
       enabled="true"
       snapvisiblegridlinesonly="true" />
  </sodipodi:namedview>
  <metadata
     id="metadata3378">
    <rdf:RDF>
      <cc:Work
         rdf:about="">
        <dc:format>image/svg+xml</dc:format>
        <dc:type
           rdf:resource="http://purl.org/dc/dcmitype/StillImage" />
        <dc:title />
      </cc:Work>
    </rdf:RDF>
  </metadata>
  <g
     inkscape:label="R"
     inkscape:groupmode="layer"
     id="layer1"
     transform="translate(0,-52.362183)">
    <path
       style="font-size:19.0334568px;font-style:normal;font-variant:normal;font-weight:bold;font-stretch:condensed;line-height:125%;letter-spacing:0px;word-spacing:0px;fill:#4d4d4d;fill-opacity:1;stroke:none;display:inline;font-family:Swis721 Cn BT;-inkscape-font-specification:Swis721 Cn BT Bold Condensed"
       d="M 416 0 L 416 80 L 384 80 C 352.0352 80 320 112.00015 320 144 L 320 384 C 320 416 352.0352 448 384 448 L 480 448 C 511.96481 448 512 447.99951 512 480 L 512 512 L 512 560 L 512 592 C 512 624 512.00001 624 480 624 L 445.8125 624 C 415.99969 624 416 624 416 592 L 416 560 L 320.5 560 L 320 656 C 320 687.99985 352.0352 720 384 720 L 416 720 L 416 800 L 512 800 L 512 720 L 544 720 C 575.96481 720 607.4968 687.99985 607.5 656 L 607.5 416 C 607.5 384 575.96481 352 544 352 L 448 352 C 416.03839 352.00032 416 351.99985 416 320 L 416 256 L 416 208 C 416 176 415.99999 176 448 176 L 480 176 C 512.00001 176 511.9968 175.99347 512 205.21875 L 512 240 L 608 240 L 607.5 144 C 607.5 112.00015 575.01121 87.75264 544 80 L 512 80 L 512 0 L 416 0 z "
       transform="translate(0,52.362183)"
       id="path4147" />
  </g>
</svg>

<?xml version="1.0" encoding="UTF-8" standalone="no"?>
<!-- Created with Inkscape (http://www.inkscape.org/) -->

<svg
   xmlns:dc="http://purl.org/dc/elements/1.1/"
   xmlns:cc="http://creativecommons.org/ns#"
   xmlns:rdf="http://www.w3.org/1999/02/22-rdf-syntax-ns#"
   xmlns:svg="http://www.w3.org/2000/svg"
   xmlns="http://www.w3.org/2000/svg"
   xmlns:sodipodi="http://sodipodi.sourceforge.net/DTD/sodipodi-0.dtd"
   xmlns:inkscape="http://www.inkscape.org/namespaces/inkscape"
   width="1000"
   height="1000"
   id="svg3373"
   version="1.1"
   inkscape:version="0.48.2 r9819"
   sodipodi:docname="dollar.svg">
  <defs
     id="defs3375" />
  <sodipodi:namedview
     id="base"
     pagecolor="#ffffff"
     bordercolor="#666666"
     borderopacity="1.0"
     inkscape:pageopacity="0.0"
     inkscape:pageshadow="2"
     inkscape:zoom="9.3663331"
     inkscape:cx="365.5221"
     inkscape:cy="880.47436"
     inkscape:document-units="px"
     inkscape:current-layer="layer1"
     showgrid="true"
     showguides="true"
     inkscape:guide-bbox="true"
     inkscape:window-width="1280"
     inkscape:window-height="752"
     inkscape:window-x="0"
     inkscape:window-y="0"
     inkscape:window-maximized="1">
    <sodipodi:guide
       orientation="0,1"
       position="453.98442,199.97922"
       id="guide3381" />
    <inkscape:grid
       type="xygrid"
       id="grid3420"
       empspacing="5"
       visible="true"
       enabled="true"
       snapvisiblegridlinesonly="true" />
  </sodipodi:namedview>
  <metadata
     id="metadata3378">
    <rdf:RDF>
      <cc:Work
         rdf:about="">
        <dc:format>image/svg+xml</dc:format>
        <dc:type
           rdf:resource="http://purl.org/dc/dcmitype/StillImage" />
        <dc:title />
      </cc:Work>
    </rdf:RDF>
  </metadata>
  <g
     inkscape:label="R"
     inkscape:groupmode="layer"
     id="layer1"
     transform="translate(0,-52.362183)">
    <path
       style="font-size:19.0334568px;font-style:normal;font-variant:normal;font-weight:bold;font-stretch:condensed;line-height:125%;letter-spacing:0px;word-spacing:0px;fill:#4d4d4d;fill-opacity:1;stroke:none;display:inline;font-family:Swis721 Cn BT;-inkscape-font-specification:Swis721 Cn BT Bold Condensed"
       d="m 416,0 0,80 -32,0 c -32,0 -64,32 -64,64 l 0,240 c 0,32 32,64 64,64 l 96,0 c 32,0 32,0 32,32 l 0,112 c 0,32 10e-6,32 -32,32 l -34,0 c -29.81281,0 -30,0 -30,-32 l 0,-32 -96,0 0,96 c 0,32 32,64 64,64 l 32,0 0,80 96,0 0,-80 32,0 c 32,0 64,-32 64,-64 l 0,-240 c 0,-32 -32,-64 -64,-64 l -96,0 c -32,0 -32,0 -32,-32 l 0,-112 c 0,-32 -10e-6,-32 32,-32 l 32,0 c 32.00001,0 32,0 32,29 l 0,35 96,0 0,-96 c 0,-32 -33,-56 -64,-64 l -32,0 0,-80 z"
       transform="translate(0,52.362183)"
       id="path4147"
       inkscape:connector-curvature="0"
       sodipodi:nodetypes="ccsssssccssscccsccccscsscccsscccccccc" />
  </g>
</svg>
